X:335
T:Jenny's Welcome to Charlie
R:reel
H:Originally from Scotland. Related to "Jenny Picking Cockles".
D:Paddy Glackin & Paddy Keenan.
D:Arty McGlynn: McGlynn's Fancy.
Z:id:hn-reel-47
M:C|
L:1/8
Q:1/4=200
K:Ddor
|:D2AB AGE^F|GEcE dEcE|D2AB AGE^F|GEcE EDCE|
D2AB AGE^F|GEcE d2cd|eddc AGE^F|[1 GEcE EDCE:|[2 GEcE EDD2||
|:=f3d efed|cA~A2 cA~A2|=f3d edcd|eaag edde|
=f3d efed|cAAB c2cd|eddc AGE^F|GEcE EDD2:|
|:~a3b age^f|~g3a gedg|eaag aged|eaag edde|
~a3b age^f|~g3a gedB|A2 (3Bcd eddc|(3AcA GE EDD2:|
|:Addc de=fd|AccB cdec|Addc d2cd|eaag eddc|
~d3e dcAB|~c3d cAGE|D2 (3E^FG Addc|[1  (3AcA GE EDD2:|[2  (3AcA GE EDCE|
